Origami/64x64/apps/synfig_icon.svg

<svg width="64" height="64" version="1.1" viewBox="0 0 16.93 16.93" xmlns="http://www.w3.org/2000/svg">
 <path d="m8.4874713 1.3231371c-0.051375-0.00146-0.1010048 0.01732-0.1365724 0.051654-0.5131703 0.4955232-1.0347293 1.0515167-1.5061034 1.5807318-5.48e-4 6.642e-4 -0.00109 0.00133-0.00162 2e-3 -1.1615849 1.3404886-2.044488 2.7178299-2.6843261 4.1925561-0.5960304 1.3737566-0.9445124 2.5621796-1.2616795 4.293351-0.069456 0.379099-0.139641 0.83847-0.1880614 1.208117-0.02421 0.184824-0.04301 0.346974-0.053655 0.466897-0.00532 0.05996-0.00842 0.109161-0.00922 0.148941-3.936e-4 0.0198-4.56e-4 0.03648 0.00162 0.05716 0.00104 0.0104 0.00202 0.02138 0.00758 0.04012 0.00558 0.0188 0.00102 0.05678 0.082377 0.103301 0.0439 0.0251 0.049807 0.02014 0.060699 0.02256 0.01088 0.0024 0.01932 0.0042 0.028182 0.0056 0.01772 0.0026 0.036518 0.0044 0.057989 0.0066 0.042947 0.0042 0.096125 0.0082 0.1522902 0.011 0.445362 0.02256 1.1021118 0.12728 1.5375365 0.245234 0.2939607 0.07962 0.4874955 0.1455 0.7744589 0.263286 0.066297 0.02722 0.1270965 0.0521 0.1723419 0.0702 0.022626 9e-3 0.041197 0.0162 0.055281 0.02156 0.00662 0.0026 0.0125 0.0044 0.01786 0.0064 3.382e-4 1.3e-4 7.458e-4 3.8e-4 0.00108 5.02e-4 8.66e-5 3.2e-5 4.474e-4 -4.8e-5 5.407e-4 0 1.908e-4 6.6e-5 3.52e-4 4.32e-4 5.412e-4 5e-4 0.00202 9.7e-4 0.00412 0.0018 0.00758 0.0034-2.064e-4 -4.4e-4 -9.416e-4 -0.0013-0.00162-0.0015 0.00102 3.5e-4 0.00143 5.84e-4 0.00272 1e-3 0.00228 7.56e-4 0.00478 2e-3 0.0103 0.0034 0.00218 6.02e-4 0.00384 0.0017 0.0065 3e-3 -0.00128-2.74e-4 -0.00608-2.04e-4 -0.00704-4.98e-4 0.01272 0.0062 0.027814 0.0142 0.048235 0.02458 0.048573 0.02472 0.1153106 0.05896 0.1880597 0.0968 0.7027593 0.365469 1.2283149 0.742347 2.0675724 1.486451 0.1105727 0.09802 0.2136059 0.186962 0.2915736 0.252758 0.038984 0.0329 0.071359 0.05996 0.097011 0.08024 0.01282 0.01 0.023666 0.0184 0.035225 0.02658 0.00578 4e-3 0.01138 0.0082 0.021136 0.014 0.0049 0.0028 0.01088 0.0062 0.021678 0.011 0.0108 0.0048 0.021562 0.0142 0.071537 0.0166 0.059873 0.0026 0.072297-0.0094 0.084545-0.0146 0.01226-5e-3 0.01854-0.0086 0.023846-0.0114 0.0106-6e-3 0.01658-0.0102 0.022762-0.0146 0.01236-0.0086 0.023528-0.0172 0.037396-0.02808 0.027736-0.02158 0.063157-0.05084 0.1056808-0.08626 0.085025-0.07076 0.1975336-0.166978 0.3186524-0.273245 0.6942496-0.609173 1.0303092-0.866684 1.5136922-1.16348 1.055624-0.648162 1.996296-0.935856 3.440353-1.048641l0.117065-9e-3c0.0941-0.0072 0.166464-0.08012 0.166382-0.167502v-0.06366c1e-6 -0.13278-0.03414-0.407022-0.0802-0.746736-0.04602-0.33956-0.104935-0.72622-0.158201-1.0199-0.316793-1.7467761-0.676958-2.9770199-1.280649-4.3681138-0.543842-1.2531825-1.322426-2.5190837-2.252922-3.6649704-0.0021-0.00258-0.0043-0.00506-0.0065-0.00754-0.6263359-0.6860534-1.2321834-1.4061355-1.8930656-2.07369-0.0330696-0.0335377-0.0794048-0.0532581-0.1284441-0.0546637z" style="opacity:.2"/>
 <path d="m8.4874713 1.0585928c-0.051375-0.00146-0.1010048 0.01732-0.1365724 0.051654-0.5131703 0.4955233-1.0347293 1.0515167-1.5061034 1.5807319-5.48e-4 6.642e-4 -0.00109 0.00133-0.00162 2e-3 -1.1615849 1.3404885-2.044488 2.7178299-2.6843261 4.1925561-0.5960304 1.3737566-0.9445124 2.5621796-1.2616795 4.2933512-0.069456 0.379098-0.139641 0.83847-0.1880614 1.208117-0.024209 0.184823-0.043009 0.346974-0.053655 0.466897-0.00532 0.05996-0.00842 0.109161-0.00922 0.14894-3.936e-4 0.0198-4.56e-4 0.03648 0.00162 0.05716 0.00104 0.0104 0.00202 0.02138 0.00758 0.04012 0.00558 0.0188 0.00102 0.05678 0.082377 0.103301 0.0439 0.0251 0.049807 0.02014 0.060699 0.02256 0.01088 0.0024 0.01932 0.0042 0.028182 0.0056 0.01772 0.0026 0.036518 0.0044 0.057989 0.0066 0.042948 0.0042 0.096125 0.0082 0.1522902 0.011 0.445362 0.02256 1.1021118 0.127281 1.5375365 0.245234 0.2939607 0.07962 0.4874955 0.145501 0.7744589 0.263286 0.066297 0.02722 0.1270965 0.0521 0.1723419 0.0702 0.022626 9e-3 0.041197 0.0162 0.055281 0.02156 0.00662 0.0026 0.0125 0.0044 0.01786 0.0064 3.382e-4 1.3e-4 7.458e-4 3.8e-4 0.00108 5.03e-4 8.66e-5 3.2e-5 4.474e-4 -4.8e-5 5.407e-4 0 1.908e-4 6.6e-5 3.52e-4 4.32e-4 5.412e-4 5e-4 0.00202 9.7e-4 0.00412 0.0018 0.00758 0.0034-2.064e-4 -4.4e-4 -9.416e-4 -0.0013-0.00162-0.0015 0.00102 3.5e-4 0.00143 5.83e-4 0.00272 1e-3 0.00228 7.56e-4 0.00478 2e-3 0.0103 0.0034 0.00218 6.02e-4 0.00384 0.0017 0.0065 3e-3 -0.00128-2.74e-4 -0.00608-2.04e-4 -0.00704-4.98e-4 0.01272 0.0062 0.027814 0.0142 0.048236 0.02458 0.048573 0.02472 0.1153106 0.05896 0.1880597 0.0968 0.7027593 0.365469 1.2283149 0.742346 2.0675724 1.48645 0.1105727 0.09802 0.2136059 0.186962 0.2915736 0.252759 0.038984 0.0329 0.071359 0.05996 0.097011 0.08024 0.01282 0.01 0.023666 0.0184 0.035225 0.02658 0.00578 4e-3 0.01138 0.0082 0.021136 0.014 0.0049 0.0028 0.01088 0.0062 0.021678 0.011 0.0108 0.0048 0.021562 0.0142 0.071537 0.0166 0.059873 0.0026 0.072297-0.0094 0.084545-0.0146 0.01226-5e-3 0.01854-0.0086 0.023846-0.0114 0.0106-6e-3 0.01658-0.0102 0.022762-0.0146 0.01236-0.0086 0.023528-0.0172 0.037396-0.02808 0.027736-0.02158 0.063157-0.05084 0.1056808-0.08626 0.085025-0.07076 0.1975336-0.166978 0.3186524-0.273246 0.6942488-0.609173 1.0303082-0.866683 1.5136912-1.16348 1.055625-0.648161 1.996296-0.935856 3.440353-1.048641l0.117065-9e-3c0.0941-0.0072 0.166464-0.08012 0.166382-0.167502v-0.06366c1e-6 -0.13278-0.03414-0.407023-0.0802-0.746736-0.04602-0.33956-0.104935-0.72622-0.158201-1.019901-0.316793-1.7467744-0.676958-2.9770181-1.280649-4.3681121-0.543842-1.2531824-1.322426-2.5190837-2.252922-3.6649704-0.0021-0.00258-0.0043-0.00506-0.0065-0.00754-0.6263359-0.6860534-1.2321834-1.4061355-1.8930656-2.07369-0.0330696-0.0335377-0.0794048-0.0532581-0.1284441-0.0546637z" style="fill:#0278dc"/>
 <path d="m8.4873655 1.0621277c-0.051375-0.00146-0.1008568 0.01776-0.1364224 0.05209-0.4345718 0.4196263-0.8693633 0.8814357-1.2803946 1.3348068l1.4004746 8.1115735 1.3862637-8.098551c-0.4044653-0.455271-0.8110331-0.9103107-1.2413138-1.3449354-0.0330694-0.0335377-0.0795684-0.0535784-0.1286075-0.0549839zm-0.0163424 9.4984703 4.2596869-3.7512047c-0.292171-0.6589182-0.652717-1.3185491-1.062257-1.9635044zl5.2707859-0.7574756c-0.129667-0.5359381-0.276285-1.036782-0.441956-1.5236329zl5.6345819 2.670337 0.01562-0.0014c0.0941-0.0072 0.166348-0.08046 0.166266-0.167842v-0.05498c1e-6 -0.13236-0.03423-0.405099-0.08029-0.743729-0.0232-0.170508-0.05223-0.335788-0.07958-0.512219l-0.102303-0.376206zl2.0648289 3.716478 0.111555-0.03906c0.391973-0.234831 0.772118-0.420372 1.168837-0.565755zl-0.8739643 4.6418c0.1058748 0.09022 0.2051936 0.171462 0.3218748 0.27492 0.1105707 0.09802 0.2133535 0.186702 0.2913214 0.25249 0.038984 0.0329 0.071695 0.06004 0.097343 0.0803 0.01282 0.01 0.023258 0.0186 0.034818 0.02676 0.00578 4e-3 0.01156 8e-3 0.021316 0.0138 0.00124 7.04e-4 0.00422 2e-3 0.00568 0.0028l0.1016088 0.018 0.2884794-0.172902c0.081761-0.06846 0.1803359-0.151381 0.2906106-0.24815 0.1064787-0.09344 0.165054-0.135861 0.2565052-0.214148zl-3.3139585 3.127573c0.062997 0.02394 0.1202206 0.04368 0.1918458 0.07308 0.066297 0.02722 0.1274145 0.05206 0.1726619 0.07018 0.022626 9e-3 0.04063 0.0162 0.054711 0.0217 0.00662 0.0026 0.01308 0.0046 0.01846 0.0066 0 0 7.104e-4 7.24e-4 7.104e-4 7.24e-4h7.107e-4 7.102e-4c0.00202 9.7e-4 0.00362 0.0019 0.00712 0.0036-2.062e-4 -4.42e-4 -7.402e-4 -0.0012-0.00142-0.0014 0.00102 3.5e-4 0.00156 3.06e-4 0.00286 7.24e-4 0.00228 7.54e-4 0.00442 2e-3 0.00994 0.0036 0.00218 6e-4 0.00446 0.0016 0.00712 0.0028-0.00128-2.76e-4 -0.00614 2.94e-4 -0.00712 0 0.01272 0.0062 0.027896 0.0142 0.048318 0.0246 0.048575 0.02472 0.1148346 0.05838 0.1875837 0.09622 0.1870298 0.09726 0.3617234 0.196822 0.532905 0.302413zl-5.5891074 0.734325c-0.063799 0.35816-0.1281665 0.768306-0.172662 1.106912-0.02421 0.184234-0.043354 0.345653-0.054001 0.465195-0.00522 0.0586-0.00838 0.10616-0.00924 0.14542-1.72e-5 7.78e-4 1.52e-5 0.0022 0 0.0028-2.134e-4 0.0162 3.682e-4 0.03092 0.00214 0.04848 0.00104 0.0104 0.00154 0.02104 0.00712 0.03978 0.00556 0.0188 0.00107 0.05692 0.082423 0.103461 0.043902 0.0251 0.050215 0.02 0.061105 0.02242 0.01088 0.0024 0.01886 0.0044 0.027712 0.0058 0.01772 0.0026 0.036792 0.0044 0.058265 0.0066 0.042947 0.0042 0.095891 8e-3 0.1520562 0.0108 0.081397 0.0042 0.175706 0.0132 0.2685841 0.02242zl-4.8345141-2.2811085c-0.1590476 0.4661677-0.3001579 0.9464843-0.4256134 1.459244zl-3.1874824-5.7472654c-0.387006 0.6058459-0.722391 1.225721-1.0132298 1.8622183z" style="fill-rule:evenodd;fill:#48a0f8"/>
 <path transform="scale(.26458333)" d="m32.078125 4c-0.194178-0.0055-0.381197 0.0655439-0.515625 0.1953125-1.939541 1.872844-3.909835 3.976379-5.691406 5.9765625-2e-3 0.00252-0.00581 0.0014-0.007813 0.003906-4.39026 5.066426-7.726246 10.273888-10.144531 15.847657-2.252713 5.192151-3.570789 9.683551-4.769531 16.226562-0.262511 1.432815-0.527932 3.169315-0.710938 4.566406-0.091498 0.698544-0.162888 1.312373-0.203125 1.765625-0.020107 0.226621-0.032132 0.412151-0.035156 0.5625-0.0014876 0.074835-5.38e-5 0.136683 0.007812 0.214844 0.003931 0.039307 0.00633 0.081515 0.027344 0.152344 8.33e-4 0.002804 0.004892 0.010611 0.00586 0.013672 0.040868-0.448614 0.108698-1.032821 0.197265-1.708985 0.183006-1.397091 0.448427-3.133591 0.710938-4.566406 1.198742-6.54301 2.516818-11.034411 4.769531-16.226562 2.418285-5.573769 5.754271-10.781231 10.144531-15.847657 0.002003-0.002506 0.005813-0.001386 0.007813-0.003906 1.781571-2.0001835 3.751865-4.1037185 5.691406-5.9765625 0.134428-0.1297686 0.321447-0.2008125 0.515625-0.1953125 0.185346 0.0053125 0.359388 0.080275 0.484375 0.2070312 2.497823 2.5230411 4.789 5.2429858 7.15625 7.8359378 0.008315 0.009373 0.0155 0.021499 0.023438 0.03125 3.516835 4.33091 6.460159 9.115124 8.515624 13.851562 2.281667 5.257678 3.642494 9.905933 4.839844 16.507813 0.201324 1.109975 0.423723 2.572092 0.597656 3.855468 0.129879 0.957915 0.214478 1.692151 0.259766 2.25586 0.027865-0.059428 0.044979-0.124175 0.044922-0.19336v-0.238281c8e-6 -0.501849-0.130602-1.54026-0.304688-2.824219-0.173933-1.283376-0.396332-2.745493-0.597656-3.855468-1.19735-6.60188-2.558177-11.250135-4.839844-16.507813-2.055465-4.736438-4.998789-9.520652-8.515624-13.851562-0.007938-0.009751-0.015123-0.021877-0.023438-0.03125-2.36725-2.5929516-4.658427-5.3128967-7.15625-7.8359378-0.124987-0.1267562-0.299029-0.2017187-0.484375-0.2070312z" style="fill:#ffffff;opacity:.2"/>
</svg>

<svg xmlns="http://www.w3.org/2000/svg" width="64" height="64" version="1.1" viewBox="0 0 16.93 16.93">
 <path style="opacity:0.2" d="m 8.4874713,1.3231371 c -0.051375,-0.00146 -0.1010048,0.01732 -0.1365724,0.051654 -0.5131703,0.4955232 -1.0347293,1.0515167 -1.5061034,1.5807318 -5.48e-4,6.642e-4 -0.00109,0.00133 -0.00162,0.002 C 5.6815906,4.2980115 4.7986875,5.6753528 4.1588494,7.150079 3.562819,8.5238356 3.214337,9.7122586 2.8971699,11.44343 c -0.069456,0.379099 -0.139641,0.83847 -0.1880614,1.208117 -0.02421,0.184824 -0.04301,0.346974 -0.053655,0.466897 -0.00532,0.05996 -0.00842,0.109161 -0.00922,0.148941 -3.936e-4,0.0198 -4.56e-4,0.03648 0.00162,0.05716 0.00104,0.0104 0.00202,0.02138 0.00758,0.04012 0.00558,0.0188 0.00102,0.05678 0.082377,0.103301 0.0439,0.0251 0.049807,0.02014 0.060699,0.02256 0.01088,0.0024 0.01932,0.0042 0.028182,0.0056 0.01772,0.0026 0.036518,0.0044 0.057989,0.0066 0.042947,0.0042 0.096125,0.0082 0.1522902,0.011 0.445362,0.02256 1.1021118,0.12728 1.5375365,0.245234 0.2939607,0.07962 0.4874955,0.1455 0.7744589,0.263286 0.066297,0.02722 0.1270965,0.0521 0.1723419,0.0702 0.022626,0.009 0.041197,0.0162 0.055281,0.02156 0.00662,0.0026 0.0125,0.0044 0.01786,0.0064 3.382e-4,1.3e-4 7.458e-4,3.8e-4 0.00108,5.02e-4 8.66e-5,3.2e-5 4.474e-4,-4.8e-5 5.407e-4,0 1.908e-4,6.6e-5 3.52e-4,4.32e-4 5.412e-4,5e-4 0.00202,9.7e-4 0.00412,0.0018 0.00758,0.0034 -2.064e-4,-4.4e-4 -9.416e-4,-0.0013 -0.00162,-0.0015 0.00102,3.5e-4 0.00143,5.84e-4 0.00272,10e-4 0.00228,7.56e-4 0.00478,0.002 0.0103,0.0034 0.00218,6.02e-4 0.00384,0.0017 0.0065,0.003 -0.00128,-2.74e-4 -0.00608,-2.04e-4 -0.00704,-4.98e-4 0.01272,0.0062 0.027814,0.0142 0.048235,0.02458 0.048573,0.02472 0.1153106,0.05896 0.1880597,0.0968 0.7027593,0.365469 1.2283149,0.742347 2.0675724,1.486451 0.1105727,0.09802 0.2136059,0.186962 0.2915736,0.252758 0.038984,0.0329 0.071359,0.05996 0.097011,0.08024 0.01282,0.01 0.023666,0.0184 0.035225,0.02658 0.00578,0.004 0.01138,0.0082 0.021136,0.014 0.0049,0.0028 0.01088,0.0062 0.021678,0.011 0.0108,0.0048 0.021562,0.0142 0.071537,0.0166 0.059873,0.0026 0.072297,-0.0094 0.084545,-0.0146 0.01226,-0.005 0.01854,-0.0086 0.023846,-0.0114 0.0106,-0.006 0.01658,-0.0102 0.022762,-0.0146 0.01236,-0.0086 0.023528,-0.0172 0.037396,-0.02808 0.027736,-0.02158 0.063157,-0.05084 0.1056808,-0.08626 0.085025,-0.07076 0.1975336,-0.166978 0.3186524,-0.273245 0.6942496,-0.609173 1.0303092,-0.866684 1.5136922,-1.16348 1.055624,-0.648162 1.996296,-0.935856 3.440353,-1.048641 l 0.117065,-0.009 c 0.0941,-0.0072 0.166464,-0.08012 0.166382,-0.167502 v -0.06366 c 1e-6,-0.13278 -0.03414,-0.407022 -0.0802,-0.746736 -0.04602,-0.33956 -0.104935,-0.72622 -0.158201,-1.0199 C 13.732259,9.7453389 13.372094,8.5150951 12.768403,7.1240012 12.224561,5.8708187 11.445977,4.6049175 10.515481,3.4590308 c -0.0021,-0.00258 -0.0043,-0.00506 -0.0065,-0.00754 C 9.8826451,2.7654374 9.2767976,2.0453553 8.6159154,1.3778008 8.5828458,1.3442631 8.5365106,1.3245427 8.4874713,1.3231371 Z"/>
 <path style="fill:#0278dc" d="m 8.4874713,1.0585928 c -0.051375,-0.00146 -0.1010048,0.01732 -0.1365724,0.051654 -0.5131703,0.4955233 -1.0347293,1.0515167 -1.5061034,1.5807319 -5.48e-4,6.642e-4 -0.00109,0.00133 -0.00162,0.002 C 5.6815906,4.0334672 4.7986875,5.4108086 4.1588494,6.8855348 3.562819,8.2592914 3.214337,9.4477144 2.8971699,11.178886 c -0.069456,0.379098 -0.139641,0.83847 -0.1880614,1.208117 -0.024209,0.184823 -0.043009,0.346974 -0.053655,0.466897 -0.00532,0.05996 -0.00842,0.109161 -0.00922,0.14894 -3.936e-4,0.0198 -4.56e-4,0.03648 0.00162,0.05716 0.00104,0.0104 0.00202,0.02138 0.00758,0.04012 0.00558,0.0188 0.00102,0.05678 0.082377,0.103301 0.0439,0.0251 0.049807,0.02014 0.060699,0.02256 0.01088,0.0024 0.01932,0.0042 0.028182,0.0056 0.01772,0.0026 0.036518,0.0044 0.057989,0.0066 0.042948,0.0042 0.096125,0.0082 0.1522902,0.011 0.445362,0.02256 1.1021118,0.127281 1.5375365,0.245234 0.2939607,0.07962 0.4874955,0.145501 0.7744589,0.263286 0.066297,0.02722 0.1270965,0.0521 0.1723419,0.0702 0.022626,0.009 0.041197,0.0162 0.055281,0.02156 0.00662,0.0026 0.0125,0.0044 0.01786,0.0064 3.382e-4,1.3e-4 7.458e-4,3.8e-4 0.00108,5.03e-4 8.66e-5,3.2e-5 4.474e-4,-4.8e-5 5.407e-4,0 1.908e-4,6.6e-5 3.52e-4,4.32e-4 5.412e-4,5e-4 0.00202,9.7e-4 0.00412,0.0018 0.00758,0.0034 -2.064e-4,-4.4e-4 -9.416e-4,-0.0013 -0.00162,-0.0015 0.00102,3.5e-4 0.00143,5.83e-4 0.00272,10e-4 0.00228,7.56e-4 0.00478,0.002 0.0103,0.0034 0.00218,6.02e-4 0.00384,0.0017 0.0065,0.003 -0.00128,-2.74e-4 -0.00608,-2.04e-4 -0.00704,-4.98e-4 0.01272,0.0062 0.027814,0.0142 0.048236,0.02458 0.048573,0.02472 0.1153106,0.05896 0.1880597,0.0968 0.7027593,0.365469 1.2283149,0.742346 2.0675724,1.48645 0.1105727,0.09802 0.2136059,0.186962 0.2915736,0.252759 0.038984,0.0329 0.071359,0.05996 0.097011,0.08024 0.01282,0.01 0.023666,0.0184 0.035225,0.02658 0.00578,0.004 0.01138,0.0082 0.021136,0.014 0.0049,0.0028 0.01088,0.0062 0.021678,0.011 0.0108,0.0048 0.021562,0.0142 0.071537,0.0166 0.059873,0.0026 0.072297,-0.0094 0.084545,-0.0146 0.01226,-0.005 0.01854,-0.0086 0.023846,-0.0114 0.0106,-0.006 0.01658,-0.0102 0.022762,-0.0146 0.01236,-0.0086 0.023528,-0.0172 0.037396,-0.02808 0.027736,-0.02158 0.063157,-0.05084 0.1056808,-0.08626 0.085025,-0.07076 0.1975336,-0.166978 0.3186524,-0.273246 0.6942488,-0.609173 1.0303082,-0.866683 1.5136912,-1.16348 1.055625,-0.648161 1.996296,-0.935856 3.440353,-1.048641 l 0.117065,-0.009 c 0.0941,-0.0072 0.166464,-0.08012 0.166382,-0.167502 v -0.06366 c 1e-6,-0.13278 -0.03414,-0.407023 -0.0802,-0.746736 -0.04602,-0.33956 -0.104935,-0.72622 -0.158201,-1.019901 C 13.732259,9.4807946 13.372094,8.2505509 12.768403,6.8594569 12.224561,5.6062745 11.445977,4.3403732 10.515481,3.1944865 c -0.0021,-0.00258 -0.0043,-0.00506 -0.0065,-0.00754 C 9.8826451,2.5008931 9.2767976,1.780811 8.6159154,1.1132565 8.5828458,1.0797188 8.5365106,1.0599984 8.4874713,1.0585928 Z"/>
 <path style="fill:#48a0f8;fill-rule:evenodd" d="m 8.4873655,1.0621277 c -0.051375,-0.00146 -0.1008568,0.01776 -0.1364224,0.05209 C 7.9163713,1.533844 7.4815798,1.9956534 7.0705485,2.4490245 L 8.4710231,10.560598 9.8572868,2.462047 C 9.4528215,2.006776 9.0462537,1.5517363 8.615973,1.1171116 8.5829036,1.0835739 8.5364046,1.0635332 8.4873655,1.0621277 Z M 8.4710231,10.560598 12.73071,6.8093933 C 12.438539,6.1504751 12.077993,5.4908442 11.668453,4.8458889 Z m 0,0 5.2707859,-0.7574756 C 13.612142,9.2671843 13.465524,8.7663404 13.299853,8.2794895 Z m 0,0 5.6345819,2.670337 0.01562,-0.0014 c 0.0941,-0.0072 0.166348,-0.08046 0.166266,-0.167842 v -0.05498 c 1e-6,-0.13236 -0.03423,-0.405099 -0.08029,-0.743729 -0.0232,-0.170508 -0.05223,-0.335788 -0.07958,-0.512219 l -0.102303,-0.376206 z m 0,0 2.0648289,3.716478 0.111555,-0.03906 c 0.391973,-0.234831 0.772118,-0.420372 1.168837,-0.565755 z m 0,0 -0.8739643,4.6418 c 0.1058748,0.09022 0.2051936,0.171462 0.3218748,0.27492 0.1105707,0.09802 0.2133535,0.186702 0.2913214,0.25249 0.038984,0.0329 0.071695,0.06004 0.097343,0.0803 0.01282,0.01 0.023258,0.0186 0.034818,0.02676 0.00578,0.004 0.01156,0.008 0.021316,0.0138 0.00124,7.04e-4 0.00422,0.002 0.00568,0.0028 l 0.1016088,0.018 0.2884794,-0.172902 c 0.081761,-0.06846 0.1803359,-0.151381 0.2906106,-0.24815 0.1064787,-0.09344 0.165054,-0.135861 0.2565052,-0.214148 z m 0,0 -3.3139585,3.127573 c 0.062997,0.02394 0.1202206,0.04368 0.1918458,0.07308 0.066297,0.02722 0.1274145,0.05206 0.1726619,0.07018 0.022626,0.009 0.04063,0.0162 0.054711,0.0217 0.00662,0.0026 0.01308,0.0046 0.01846,0.0066 0,0 7.104e-4,7.24e-4 7.104e-4,7.24e-4 0,0 7.107e-4,0 7.107e-4,0 0,0 7.102e-4,0 7.102e-4,0 0.00202,9.7e-4 0.00362,0.0019 0.00712,0.0036 -2.062e-4,-4.42e-4 -7.402e-4,-0.0012 -0.00142,-0.0014 0.00102,3.5e-4 0.00156,3.06e-4 0.00286,7.24e-4 0.00228,7.54e-4 0.00442,0.002 0.00994,0.0036 0.00218,6e-4 0.00446,0.0016 0.00712,0.0028 -0.00128,-2.76e-4 -0.00614,2.94e-4 -0.00712,0 0.01272,0.0062 0.027896,0.0142 0.048318,0.0246 0.048575,0.02472 0.1148346,0.05838 0.1875837,0.09622 0.1870298,0.09726 0.3617234,0.196822 0.532905,0.302413 z m 0,0 -5.5891074,0.734325 c -0.063799,0.35816 -0.1281665,0.768306 -0.172662,1.106912 -0.02421,0.184234 -0.043354,0.345653 -0.054001,0.465195 -0.00522,0.0586 -0.00838,0.10616 -0.00924,0.14542 -1.72e-5,7.78e-4 1.52e-5,0.0022 0,0.0028 -2.134e-4,0.0162 3.682e-4,0.03092 0.00214,0.04848 0.00104,0.0104 0.00154,0.02104 0.00712,0.03978 0.00556,0.0188 0.00107,0.05692 0.082423,0.103461 0.043902,0.0251 0.050215,0.02 0.061105,0.02242 0.01088,0.0024 0.01886,0.0044 0.027712,0.0058 0.01772,0.0026 0.036792,0.0044 0.058265,0.0066 0.042947,0.0042 0.095891,0.008 0.1520562,0.0108 0.081397,0.0042 0.175706,0.0132 0.2685841,0.02242 z m 0,0 L 3.636509,8.2794895 C 3.4774614,8.7456572 3.3363511,9.2259738 3.2108956,9.7387335 Z m 0,0 -3.1874824,-5.7472654 c -0.387006,0.6058459 -0.722391,1.225721 -1.0132298,1.8622183 z"/>
 <path style="opacity:0.2;fill:#ffffff" d="M 32.078125 4 C 31.883947 3.9945 31.696928 4.0655439 31.5625 4.1953125 C 29.622959 6.0681565 27.652665 8.1716915 25.871094 10.171875 C 25.869094 10.174395 25.865284 10.173275 25.863281 10.175781 C 21.473021 15.242207 18.137035 20.449669 15.71875 26.023438 C 13.466037 31.215589 12.147961 35.706989 10.949219 42.25 C 10.686708 43.682815 10.421287 45.419315 10.238281 46.816406 C 10.146783 47.51495 10.075393 48.128779 10.035156 48.582031 C 10.015049 48.808652 10.003024 48.994182 10 49.144531 C 9.9985124 49.219366 9.9999462 49.281214 10.007812 49.359375 C 10.011743 49.398682 10.014142 49.44089 10.035156 49.511719 C 10.035989 49.514523 10.040048 49.52233 10.041016 49.525391 C 10.081884 49.076777 10.149714 48.49257 10.238281 47.816406 C 10.421287 46.419315 10.686708 44.682815 10.949219 43.25 C 12.147961 36.70699 13.466037 32.215589 15.71875 27.023438 C 18.137035 21.449669 21.473021 16.242207 25.863281 11.175781 C 25.865284 11.173275 25.869094 11.174395 25.871094 11.171875 C 27.652665 9.1716915 29.622959 7.0681565 31.5625 5.1953125 C 31.696928 5.0655439 31.883947 4.9945 32.078125 5 C 32.263471 5.0053125 32.437513 5.080275 32.5625 5.2070312 C 35.060323 7.7300723 37.3515 10.450017 39.71875 13.042969 C 39.727065 13.052342 39.73425 13.064468 39.742188 13.074219 C 43.259023 17.405129 46.202347 22.189343 48.257812 26.925781 C 50.539479 32.183459 51.900306 36.831714 53.097656 43.433594 C 53.29898 44.543569 53.521379 46.005686 53.695312 47.289062 C 53.825191 48.246977 53.90979 48.981213 53.955078 49.544922 C 53.982943 49.485494 54.000057 49.420747 54 49.351562 L 54 49.113281 C 54.000008 48.611432 53.869398 47.573021 53.695312 46.289062 C 53.521379 45.005686 53.29898 43.543569 53.097656 42.433594 C 51.900306 35.831714 50.539479 31.183459 48.257812 25.925781 C 46.202347 21.189343 43.259023 16.405129 39.742188 12.074219 C 39.73425 12.064468 39.727065 12.052342 39.71875 12.042969 C 37.3515 9.4500174 35.060323 6.7300723 32.5625 4.2070312 C 32.437513 4.080275 32.263471 4.0053125 32.078125 4 z" transform="scale(0.26458333)"/>
</svg>
